X:1
T:Title
%%score 1 2
L:1/8
Q:1/4=105
M:4/4
K:E
V:1 treble nm="Choir Aahs, Staff"
V:2 bass nm="Choir Aahs, Staff-1"
V:1
 E2 [EG]2 [DB]2 [Ee]2 | [EB]2 [EA]2 [DB]2 [EG]2 | [DF]2 [EG]2 [E^A]2 [DB]2 | %3
w: By~J.~B.~Dykes * * *|||
 [EB]2 [Fd]2 [Ec]2[Q:1/4=60] [DB]2 |[Q:1/4=106] [=DB]2 [CA]2 [CG]2 [CA]2 | %5
w: ||
 [F=d]2 [Ec]2 [EB]2 [Ec]2 | [Fd]2 [Ee]2 [FA]2 [EG]2 | [EF]2 [EG]2 [DF]2[Q:1/4=60] E2 |] %8
w: |||
V:2
 [E,G,]2 [E,B,]2 [F,A,]2 [G,B,]2 | [G,B,]2 [F,C]2 [B,,B,]2 [E,B,]2 | %2
 [B,,B,]2 [E,B,]2 [C,C]2 [G,B,]2 | [G,B,]2 [F,B,]2 [F,^A,]2 [B,,B,]2 | %4
 [B,,F,]2 [C,F,]2 [C,^E,]2 F,2 | [=D,A,]2 [E,A,]2 [E,G,]2 A,2 | [F,A,]2 [G,B,]2 [D,B,]2 [E,B,]2 | %7
 [A,,C]2 [B,,B,]2 [B,,B,]2 [E,G,]2 |] %8

